images/3234758.svg

<?xml version="1.0" encoding="UTF-8"?>
<svg xmlns="http://www.w3.org/2000/svg" xmlns:xlink="http://www.w3.org/1999/xlink" width="300pt" height="300pt" viewBox="0 0 300 300" version="1.1">
<defs>
<g>
<symbol overflow="visible" id="glyph0-0">
<path style="stroke:none;" d="M 0.546875 1.9375 L 0.546875 -7.75 L 6.046875 -7.75 L 6.046875 1.9375 Z M 1.171875 1.328125 L 5.4375 1.328125 L 5.4375 -7.140625 L 1.171875 -7.140625 Z M 1.171875 1.328125 "/>
</symbol>
<symbol overflow="visible" id="glyph0-1">
<path style="stroke:none;" d="M 4.328125 -7.28125 C 3.546875 -7.28125 2.921875 -6.984375 2.453125 -6.390625 C 1.992188 -5.804688 1.765625 -5.007812 1.765625 -4 C 1.765625 -2.988281 1.992188 -2.1875 2.453125 -1.59375 C 2.921875 -1.007812 3.546875 -0.71875 4.328125 -0.71875 C 5.117188 -0.71875 5.742188 -1.007812 6.203125 -1.59375 C 6.660156 -2.1875 6.890625 -2.988281 6.890625 -4 C 6.890625 -5.007812 6.660156 -5.804688 6.203125 -6.390625 C 5.742188 -6.984375 5.117188 -7.28125 4.328125 -7.28125 Z M 4.328125 -8.171875 C 5.453125 -8.171875 6.351562 -7.789062 7.03125 -7.03125 C 7.707031 -6.28125 8.046875 -5.269531 8.046875 -4 C 8.046875 -2.738281 7.707031 -1.726562 7.03125 -0.96875 C 6.351562 -0.21875 5.453125 0.15625 4.328125 0.15625 C 3.203125 0.15625 2.300781 -0.21875 1.625 -0.96875 C 0.957031 -1.71875 0.625 -2.726562 0.625 -4 C 0.625 -5.269531 0.957031 -6.28125 1.625 -7.03125 C 2.300781 -7.789062 3.203125 -8.171875 4.328125 -8.171875 Z M 4.328125 -8.171875 "/>
</symbol>
<symbol overflow="visible" id="glyph0-2">
<path style="stroke:none;" d="M 1.078125 -8.015625 L 2.546875 -8.015625 L 6.09375 -1.3125 L 6.09375 -8.015625 L 7.15625 -8.015625 L 7.15625 0 L 5.6875 0 L 2.125 -6.703125 L 2.125 0 L 1.078125 0 Z M 1.078125 -8.015625 "/>
</symbol>
<symbol overflow="visible" id="glyph0-3">
<path style="stroke:none;" d="M 1.078125 -8.015625 L 2.171875 -8.015625 L 2.171875 -4.734375 L 6.109375 -4.734375 L 6.109375 -8.015625 L 7.1875 -8.015625 L 7.1875 0 L 6.109375 0 L 6.109375 -3.8125 L 2.171875 -3.8125 L 2.171875 0 L 1.078125 0 Z M 1.078125 -8.015625 "/>
</symbol>
</g>
</defs>
<g id="surface32313">
<rect x="0" y="0" width="300" height="300" style="fill:rgb(100%,100%,100%);fill-opacity:1;stroke:none;"/>
<path style="fill:none;stroke-width:1.2;stroke-linecap:butt;stroke-linejoin:miter;stroke:rgb(0%,0%,0%);stroke-opacity:1;stroke-miterlimit:10;" d="M 35.25 125.363281 L 41.476562 136.488281 "/>
<path style="fill:none;stroke-width:1.2;stroke-linecap:butt;stroke-linejoin:miter;stroke:rgb(100%,0%,0%);stroke-opacity:1;stroke-miterlimit:10;" d="M 41.476562 136.488281 L 47.703125 147.617188 "/>
<path style="fill:none;stroke-width:1.2;stroke-linecap:butt;stroke-linejoin:miter;stroke:rgb(100%,0%,0%);stroke-opacity:1;stroke-miterlimit:10;" d="M 47.703125 147.617188 L 60.453125 147.785156 "/>
<path style="fill:none;stroke-width:1.2;stroke-linecap:butt;stroke-linejoin:miter;stroke:rgb(0%,0%,0%);stroke-opacity:1;stroke-miterlimit:10;" d="M 60.453125 147.785156 L 73.203125 147.957031 "/>
<path style=" stroke:none;fill-rule:nonzero;fill:rgb(100%,100%,100%);fill-opacity:1;" d="M 43.703125 141.117188 L 52.703125 141.117188 L 52.703125 154.117188 L 43.703125 154.117188 Z M 43.703125 141.117188 "/>
<g style="fill:rgb(100%,0%,0%);fill-opacity:1;">
  <use xlink:href="#glyph0-1" x="43.703125" y="151.018555"/>
</g>
<path style="fill:none;stroke-width:1.2;stroke-linecap:butt;stroke-linejoin:miter;stroke:rgb(0%,0%,0%);stroke-opacity:1;stroke-miterlimit:10;" d="M 73.203125 147.957031 L 86.25 126.042969 "/>
<path style="fill:none;stroke-width:1.2;stroke-linecap:butt;stroke-linejoin:miter;stroke:rgb(0%,0%,0%);stroke-opacity:1;stroke-miterlimit:10;" d="M 79.664062 148.835938 L 90.101562 131.304688 "/>
<path style="fill:none;stroke-width:1.2;stroke-linecap:butt;stroke-linejoin:miter;stroke:rgb(0%,0%,0%);stroke-opacity:1;stroke-miterlimit:10;" d="M 85.660156 170.210938 L 73.203125 147.957031 "/>
<path style="fill:none;stroke-width:1.2;stroke-linecap:butt;stroke-linejoin:miter;stroke:rgb(0%,0%,0%);stroke-opacity:1;stroke-miterlimit:10;" d="M 86.25 126.042969 L 111.75 126.382812 "/>
<path style="fill:none;stroke-width:1.2;stroke-linecap:butt;stroke-linejoin:miter;stroke:rgb(0%,0%,0%);stroke-opacity:1;stroke-miterlimit:10;" d="M 111.75 126.382812 L 124.203125 148.636719 "/>
<path style="fill:none;stroke-width:1.2;stroke-linecap:butt;stroke-linejoin:miter;stroke:rgb(0%,0%,0%);stroke-opacity:1;stroke-miterlimit:10;" d="M 107.757812 131.539062 L 117.722656 149.34375 "/>
<path style="fill:none;stroke-width:1.2;stroke-linecap:butt;stroke-linejoin:miter;stroke:rgb(0%,0%,0%);stroke-opacity:1;stroke-miterlimit:10;" d="M 124.203125 148.636719 L 111.160156 170.550781 "/>
<path style="fill:none;stroke-width:1.2;stroke-linecap:butt;stroke-linejoin:miter;stroke:rgb(0%,0%,0%);stroke-opacity:1;stroke-miterlimit:10;" d="M 124.203125 148.636719 L 136.953125 148.808594 "/>
<path style="fill:none;stroke-width:1.2;stroke-linecap:butt;stroke-linejoin:miter;stroke:rgb(0%,0%,100%);stroke-opacity:1;stroke-miterlimit:10;" d="M 136.953125 148.808594 L 149.703125 148.976562 "/>
<path style="fill:none;stroke-width:1.2;stroke-linecap:butt;stroke-linejoin:miter;stroke:rgb(0%,0%,0%);stroke-opacity:1;stroke-miterlimit:10;" d="M 111.160156 170.550781 L 85.660156 170.210938 "/>
<path style="fill:none;stroke-width:1.2;stroke-linecap:butt;stroke-linejoin:miter;stroke:rgb(0%,0%,0%);stroke-opacity:1;stroke-miterlimit:10;" d="M 108.691406 164.515625 L 88.289062 164.246094 "/>
<path style="fill:none;stroke-width:1.2;stroke-linecap:butt;stroke-linejoin:miter;stroke:rgb(0%,0%,100%);stroke-opacity:1;stroke-miterlimit:10;" d="M 149.703125 148.976562 L 155.933594 160.105469 "/>
<path style="fill:none;stroke-width:1.2;stroke-linecap:butt;stroke-linejoin:miter;stroke:rgb(0%,0%,0%);stroke-opacity:1;stroke-miterlimit:10;" d="M 155.933594 160.105469 L 162.160156 171.230469 "/>
<path style=" stroke:none;fill-rule:nonzero;fill:rgb(100%,100%,100%);fill-opacity:1;" d="M 141.703125 142.476562 L 158.703125 142.476562 L 158.703125 155.476562 L 141.703125 155.476562 Z M 141.703125 142.476562 "/>
<g style="fill:rgb(0%,0%,100%);fill-opacity:1;">
  <use xlink:href="#glyph0-2" x="141.703125" y="152.37793"/>
  <use xlink:href="#glyph0-3" x="149.686523" y="152.37793"/>
</g>
<path style="fill:none;stroke-width:1.2;stroke-linecap:butt;stroke-linejoin:miter;stroke:rgb(0%,0%,0%);stroke-opacity:1;stroke-miterlimit:10;" d="M 159.582031 169.699219 L 153.058594 180.652344 "/>
<path style="fill:none;stroke-width:1.2;stroke-linecap:butt;stroke-linejoin:miter;stroke:rgb(100%,0%,0%);stroke-opacity:1;stroke-miterlimit:10;" d="M 153.058594 180.652344 L 146.539062 191.609375 "/>
<path style="fill:none;stroke-width:1.2;stroke-linecap:butt;stroke-linejoin:miter;stroke:rgb(0%,0%,0%);stroke-opacity:1;stroke-miterlimit:10;" d="M 164.738281 172.765625 L 158.214844 183.722656 "/>
<path style="fill:none;stroke-width:1.2;stroke-linecap:butt;stroke-linejoin:miter;stroke:rgb(100%,0%,0%);stroke-opacity:1;stroke-miterlimit:10;" d="M 158.214844 183.722656 L 151.691406 194.679688 "/>
<path style="fill:none;stroke-width:1.2;stroke-linecap:butt;stroke-linejoin:miter;stroke:rgb(0%,0%,0%);stroke-opacity:1;stroke-miterlimit:10;" d="M 162.160156 171.230469 L 174.910156 171.402344 "/>
<path style="fill:none;stroke-width:1.2;stroke-linecap:butt;stroke-linejoin:miter;stroke:rgb(0%,0%,100%);stroke-opacity:1;stroke-miterlimit:10;" d="M 174.910156 171.402344 L 187.660156 171.574219 "/>
<path style=" stroke:none;fill-rule:nonzero;fill:rgb(100%,100%,100%);fill-opacity:1;" d="M 140.113281 186.644531 L 149.113281 186.644531 L 149.113281 199.644531 L 140.113281 199.644531 Z M 140.113281 186.644531 "/>
<g style="fill:rgb(100%,0%,0%);fill-opacity:1;">
  <use xlink:href="#glyph0-1" x="140.113281" y="196.545898"/>
</g>
<path style="fill:none;stroke-width:1.2;stroke-linecap:butt;stroke-linejoin:miter;stroke:rgb(0%,0%,100%);stroke-opacity:1;stroke-miterlimit:10;" d="M 187.660156 171.574219 L 193.886719 182.699219 "/>
<path style="fill:none;stroke-width:1.2;stroke-linecap:butt;stroke-linejoin:miter;stroke:rgb(0%,0%,0%);stroke-opacity:1;stroke-miterlimit:10;" d="M 193.886719 182.699219 L 200.113281 193.828125 "/>
<path style="fill:none;stroke-width:1.2;stroke-linecap:butt;stroke-linejoin:miter;stroke:rgb(0%,0%,0%);stroke-opacity:1;stroke-miterlimit:10;" d="M 200.703125 149.660156 L 194.183594 160.617188 "/>
<path style="fill:none;stroke-width:1.2;stroke-linecap:butt;stroke-linejoin:miter;stroke:rgb(0%,0%,100%);stroke-opacity:1;stroke-miterlimit:10;" d="M 194.183594 160.617188 L 187.660156 171.574219 "/>
<path style=" stroke:none;fill-rule:nonzero;fill:rgb(100%,100%,100%);fill-opacity:1;" d="M 183.660156 165.074219 L 191.660156 165.074219 L 191.660156 178.074219 L 183.660156 178.074219 Z M 183.660156 165.074219 "/>
<g style="fill:rgb(0%,0%,100%);fill-opacity:1;">
  <use xlink:href="#glyph0-2" x="183.660156" y="174.975586"/>
</g>
<path style="fill:none;stroke-width:1.2;stroke-linecap:butt;stroke-linejoin:miter;stroke:rgb(0%,0%,0%);stroke-opacity:1;stroke-miterlimit:10;" d="M 200.113281 193.828125 L 225.613281 194.167969 "/>
<path style="fill:none;stroke-width:1.2;stroke-linecap:butt;stroke-linejoin:miter;stroke:rgb(0%,0%,0%);stroke-opacity:1;stroke-miterlimit:10;" d="M 225.613281 194.167969 L 238.660156 172.253906 "/>
<path style="fill:none;stroke-width:1.2;stroke-linecap:butt;stroke-linejoin:miter;stroke:rgb(0%,0%,0%);stroke-opacity:1;stroke-miterlimit:10;" d="M 238.660156 172.253906 L 226.203125 150 "/>
<path style="fill:none;stroke-width:1.2;stroke-linecap:butt;stroke-linejoin:miter;stroke:rgb(0%,0%,0%);stroke-opacity:1;stroke-miterlimit:10;" d="M 226.203125 150 L 200.703125 149.660156 "/>
<path style="fill:none;stroke-width:1.2;stroke-linecap:butt;stroke-linejoin:miter;stroke:rgb(0%,0%,0%);stroke-opacity:1;stroke-miterlimit:10;" d="M 226.203125 150 L 251.703125 150.339844 "/>
<path style="fill:none;stroke-width:1.2;stroke-linecap:butt;stroke-linejoin:miter;stroke:rgb(0%,0%,0%);stroke-opacity:1;stroke-miterlimit:10;" d="M 213.75 127.746094 L 226.203125 150 "/>
<path style="fill:none;stroke-width:1.2;stroke-linecap:butt;stroke-linejoin:miter;stroke:rgb(0%,0%,0%);stroke-opacity:1;stroke-miterlimit:10;" d="M 251.703125 150.339844 L 264.75 128.425781 "/>
<path style="fill:none;stroke-width:1.2;stroke-linecap:butt;stroke-linejoin:miter;stroke:rgb(0%,0%,0%);stroke-opacity:1;stroke-miterlimit:10;" d="M 264.75 128.425781 L 258.523438 117.300781 "/>
<path style="fill:none;stroke-width:1.2;stroke-linecap:butt;stroke-linejoin:miter;stroke:rgb(0%,0%,100%);stroke-opacity:1;stroke-miterlimit:10;" d="M 258.523438 117.300781 L 252.296875 106.171875 "/>
<path style="fill:none;stroke-width:1.2;stroke-linecap:butt;stroke-linejoin:miter;stroke:rgb(0%,0%,100%);stroke-opacity:1;stroke-miterlimit:10;" d="M 252.296875 106.171875 L 239.546875 106.003906 "/>
<path style="fill:none;stroke-width:1.2;stroke-linecap:butt;stroke-linejoin:miter;stroke:rgb(0%,0%,0%);stroke-opacity:1;stroke-miterlimit:10;" d="M 239.546875 106.003906 L 226.796875 105.832031 "/>
<path style=" stroke:none;fill-rule:nonzero;fill:rgb(100%,100%,100%);fill-opacity:1;" d="M 244.296875 99.671875 L 261.296875 99.671875 L 261.296875 112.671875 L 244.296875 112.671875 Z M 244.296875 99.671875 "/>
<g style="fill:rgb(0%,0%,100%);fill-opacity:1;">
  <use xlink:href="#glyph0-2" x="244.296875" y="109.573242"/>
  <use xlink:href="#glyph0-3" x="252.280273" y="109.573242"/>
</g>
<path style="fill:none;stroke-width:1.2;stroke-linecap:butt;stroke-linejoin:miter;stroke:rgb(0%,0%,0%);stroke-opacity:1;stroke-miterlimit:10;" d="M 226.796875 105.832031 L 213.75 127.746094 "/>
</g>
</svg>

<svg xmlns="http://www.w3.org/2000/svg" xmlns:xlink="http://www.w3.org/1999/xlink" width="300pt" height="300pt" viewBox="0 0 300 300"><defs><symbol overflow="visible"><path d="M.547 1.938V-7.75h5.5v9.688zm.625-.61h4.266v-8.47H1.171zm0 0"/></symbol><symbol overflow="visible" id="a"><path d="M4.328-7.28c-.78 0-1.406.296-1.875.89-.46.585-.687 1.382-.687 2.39 0 1.012.226 1.813.687 2.406.47.586 1.094.875 1.875.875.79 0 1.414-.288 1.875-.874.457-.593.688-1.394.688-2.406 0-1.008-.23-1.805-.687-2.39-.46-.594-1.086-.89-1.875-.89zm0-.892c1.125 0 2.024.383 2.703 1.14C7.708-6.28 8.048-5.27 8.048-4c0 1.262-.34 2.273-1.016 3.03C6.353-.22 5.454.157 4.33.157S2.3-.22 1.625-.97c-.668-.75-1-1.757-1-3.03 0-1.27.332-2.28 1-3.03.676-.76 1.578-1.142 2.703-1.142zm0 0"/></symbol><symbol overflow="visible" id="b"><path d="M1.078-8.016h1.47l3.546 6.704v-6.704h1.062V0H5.688L2.124-6.703V0H1.078zm0 0"/></symbol><symbol overflow="visible" id="c"><path d="M1.078-8.016h1.094v3.282H6.11v-3.282h1.077V0H6.11v-3.813H2.17V0H1.078zm0 0"/></symbol></defs><g><path fill="#fff" d="M0 0h300v300H0z"/><path d="M35.25 125.363l6.227 11.125" stroke-width="1.2" stroke="#000" stroke-miterlimit="10" fill="none"/><path d="M41.477 136.488l6.226 11.13M47.703 147.617l12.75.168" stroke-width="1.2" stroke="#f00" stroke-miterlimit="10" fill="none"/><path d="M60.453 147.785l12.75.172" stroke-width="1.2" stroke="#000" stroke-miterlimit="10" fill="none"/><path d="M43.703 141.117h9v13h-9zm0 0" fill="#fff"/><use xlink:href="#a" x="43.703" y="151.019" fill="#f00"/><path d="M73.203 147.957l13.047-21.914M79.664 148.836l10.438-17.53M85.66 170.21l-12.457-22.253M86.25 126.043l25.5.34M111.75 126.383l12.453 22.254M107.758 131.54l9.965 17.804M124.203 148.637L111.16 170.55M124.203 148.637l12.75.172" stroke-width="1.2" stroke="#000" stroke-miterlimit="10" fill="none"/><path d="M136.953 148.81l12.75.167" stroke-width="1.2" stroke="#00f" stroke-miterlimit="10" fill="none"/><path d="M111.16 170.55l-25.5-.34M108.69 164.516l-20.4-.27" stroke-width="1.2" stroke="#000" stroke-miterlimit="10" fill="none"/><path d="M149.703 148.977l6.23 11.128" stroke-width="1.2" stroke="#00f" stroke-miterlimit="10" fill="none"/><path d="M155.934 160.105l6.226 11.125" stroke-width="1.2" stroke="#000" stroke-miterlimit="10" fill="none"/><path d="M141.703 142.477h17v13h-17zm0 0" fill="#fff"/><g fill="#00f"><use xlink:href="#b" x="141.703" y="152.378"/><use xlink:href="#c" x="149.687" y="152.378"/></g><path d="M159.582 169.7l-6.523 10.952" stroke-width="1.2" stroke="#000" stroke-miterlimit="10" fill="none"/><path d="M153.06 180.652l-6.52 10.957" stroke-width="1.2" stroke="#f00" stroke-miterlimit="10" fill="none"/><path d="M164.738 172.766l-6.523 10.957" stroke-width="1.2" stroke="#000" stroke-miterlimit="10" fill="none"/><path d="M158.215 183.723l-6.524 10.957" stroke-width="1.2" stroke="#f00" stroke-miterlimit="10" fill="none"/><path d="M162.16 171.23l12.75.172" stroke-width="1.2" stroke="#000" stroke-miterlimit="10" fill="none"/><path d="M174.91 171.402l12.75.172" stroke-width="1.2" stroke="#00f" stroke-miterlimit="10" fill="none"/><path d="M140.113 186.645h9v13h-9zm0 0" fill="#fff"/><use xlink:href="#a" x="140.113" y="196.546" fill="#f00"/><path d="M187.66 171.574l6.227 11.125" stroke-width="1.2" stroke="#00f" stroke-miterlimit="10" fill="none"/><path d="M193.887 182.7l6.226 11.128M200.703 149.66l-6.52 10.957" stroke-width="1.2" stroke="#000" stroke-miterlimit="10" fill="none"/><path d="M194.184 160.617l-6.524 10.957" stroke-width="1.2" stroke="#00f" stroke-miterlimit="10" fill="none"/><path d="M183.66 165.074h8v13h-8zm0 0" fill="#fff"/><use xlink:href="#b" x="183.66" y="174.976" fill="#00f"/><path d="M200.113 193.828l25.5.34M225.613 194.168l13.047-21.914M238.66 172.254L226.203 150M226.203 150l-25.5-.34M226.203 150l25.5.34M213.75 127.746L226.203 150M251.703 150.34l13.047-21.914M264.75 128.426l-6.227-11.125" stroke-width="1.2" stroke="#000" stroke-miterlimit="10" fill="none"/><path d="M258.523 117.3l-6.226-11.128M252.297 106.172l-12.75-.168" stroke-width="1.2" stroke="#00f" stroke-miterlimit="10" fill="none"/><path d="M239.547 106.004l-12.75-.172" stroke-width="1.2" stroke="#000" stroke-miterlimit="10" fill="none"/><path d="M244.297 99.672h17v13h-17zm0 0" fill="#fff"/><g fill="#00f"><use xlink:href="#b" x="244.297" y="109.573"/><use xlink:href="#c" x="252.28" y="109.573"/></g><path d="M226.797 105.832l-13.047 21.914" stroke-width="1.2" stroke="#000" stroke-miterlimit="10" fill="none"/></g></svg>
